icons/mobile/20/svg/private-mode-circle-fill-purple-20.svg

<!-- This Source Code Form is subject to the terms of the Mozilla Public
   - License, v. 2.0. If a copy of the MPL was not distributed with this
   - file, You can obtain one at http://mozilla.org/MPL/2.0/. -->
<svg width="16" height="16" viewBox="0 0 16 16" fill="none" xmlns="http://www.w3.org/2000/svg">
    <g clip-path="url(#clip0_4264_661)">
        <path d="M8 16C12.4183 16 16 12.4183 16 8C16 3.58172 12.4183 0 8 0C3.58172 0 0 3.58172 0 8C0 12.4183 3.58172 16 8 16Z" fill="#B833E1" />
        <path d="M11.87 8.51C11.55 8.9 11.05 9.15 10.5 9.15C9.95001 9.15 9.45001 8.9 9.13001 8.51C8.96001 8.31 8.96001 7.99 9.13001 7.78C9.45001 7.39 9.95001 7.14 10.5 7.14C11.05 7.14 11.55 7.39 11.87 7.78C12.04 7.98 12.04 8.3 11.87 8.51ZM6.87001 8.51C6.55001 8.9 6.05001 9.15 5.50001 9.15C4.95001 9.15 4.45001 8.9 4.13001 8.51C3.96001 8.31 3.96001 7.99 4.13001 7.78C4.45001 7.39 4.95001 7.14 5.50001 7.14C6.05001 7.14 6.55001 7.39 6.87001 7.78C7.04001 7.98 7.04001 8.3 6.87001 8.51ZM12.95 6.51C12.97 6.02 12.64 5.57 12.16 5.46C10.96 5.19 9.71001 5.53 8.81001 6.36L8.66001 6.5C8.48001 6.67 8.24001 6.76 8.00001 6.76C7.76001 6.76 7.52001 6.67 7.34001 6.5L7.19001 6.36C6.29001 5.52 5.04001 5.18 3.84001 5.45C3.36001 5.56 3.02001 6 3.05001 6.49C2.93001 6.98 3.12001 8.78 3.22001 9.06C3.44001 10.2 4.37001 11.06 5.49001 11.06C6.05001 11.06 6.56001 10.84 6.96001 10.48L7.20001 10.27C7.65001 9.88 8.31001 9.88 8.77001 10.26L9.14001 10.56C9.53001 10.87 10 11.06 10.52 11.06C11.64 11.06 12.58 10.2 12.79 9.06C12.9 8.78 13.09 6.99 12.96 6.49L12.95 6.51Z" fill="white" />
    </g>
    <defs>
        <clipPath id="clip0_4264_661">
            <rect width="16" height="16" fill="white" />
        </clipPath>
    </defs>
</svg>

<!-- This Source Code Form is subject to the terms of the Mozilla Public
   - License, v. 2.0. If a copy of the MPL was not distributed with this
   - file, You can obtain one at http://mozilla.org/MPL/2.0/. -->
<svg xmlns="http://www.w3.org/2000/svg" width="16" height="16" fill="none" viewBox="0 0 16 16">
    <g clip-path="url(#clip0_4264_661)">
        <path fill="#b833e1" d="M8 16A8 8 0 1 0 8 0a8 8 0 0 0 0 16" />
        <path fill="#fff" d="M11.87 8.51c-.32.39-.82.64-1.37.64s-1.05-.25-1.37-.64a.586.586 0 0 1 0-.73c.32-.39.82-.64 1.37-.64s1.05.25 1.37.64c.17.2.17.52 0 .73m-5 0c-.32.39-.82.64-1.37.64s-1.05-.25-1.37-.64a.586.586 0 0 1 0-.73c.32-.39.82-.64 1.37-.64s1.05.25 1.37.64c.17.2.17.52 0 .73m6.08-2c.02-.49-.31-.94-.79-1.05-1.2-.27-2.45.07-3.35.9l-.15.14a.965.965 0 0 1-1.32 0l-.15-.14a3.71 3.71 0 0 0-3.35-.91c-.48.11-.82.55-.79 1.04-.12.49.07 2.29.17 2.57.22 1.14 1.15 2 2.27 2 .56 0 1.07-.22 1.47-.58l.24-.21c.45-.39 1.11-.39 1.57-.01l.37.3c.39.31.86.5 1.38.5 1.12 0 2.06-.86 2.27-2 .11-.28.3-2.07.17-2.57z" />
    </g>
</svg>
